X:1
T:Ecce vidimus - Viadana
T:James Gibb editions
T:#
%%score [ 1 2 3 4 ]
L:1/8
Q:1/4=180
M:none
K:C
V:1 treble nm="Soprano" snm="S"
V:2 treble nm="Alto" snm="A"
V:3 treble-8 nm="Tenor" snm="T"
V:4 bass nm="Bass" snm="B"
V:1
"^Ecce vidimus""^Ludovico da Viadana\n(1560-1627)" ^G8 A4 B4- | B2 B2 c4 A8 | G4 c8 A4 | %3
w: Ec\- ce vi\-|* di- mus e-|um non ha-|
 G4 A4 F6 F2 | E4 E4 F4 G4 | A8 B8 | z4 B4 B4 c4 | A8 G4 G4 | F8 F4 E4 | E8 F8 | G4 G8 G4 | A8 G8 | %12
w: ben- tem spe- ci-|em, ne- que de-|co- rem:|as- pe- ctus|e- ius in|e- o non|est: hic|pec- ca- ta|no- stra|
 G4 (G8 ^F4) | G4 G8 G4 | A4 A4 G8 | ^F8 z4 E4- | E4 G4 A8 | G8 _B6 B2 | _B4 G4 G4 G4 | %19
w: por- ta\- *|vit, et pro|no- bis do-|let: i\-|* pse au-|tem vul- ne-|ra- tus est pro-|
 G4 G4 A4 G4 | A8 c4 (B4- | B2 A2 A8 ^G4) | A16 || G8 A4 G4 | A8 B4 c4 | A4 G4 A8 | ^G16 || %27
w: pter i- ni- qui-|ta- tes no\-||stras.|Cu- ius li-|vo- re sa-|na- li su-|mus.|
 !courtesy!=G16 | F4 E4 G8 | G16 | F16 | F8 F4 F4 | E16 | E16 || G8 A4 G4 | %35
w: Vere~languores~nostros|i- pse tu-|lit,|et~dolores~nostros|i- pse por-|ta-|vi.|Cu- ius li-|
[Q:1/4=175] A8[Q:1/4=170] B4[Q:1/4=166] c4 |[Q:1/4=162] A4[Q:1/4=158] G4[Q:1/4=153] A8 | %37
w: vo- re sa-|na- li su-|
[Q:1/4=150] ^G16 |] %38
w: mus.|
V:2
 E8 E4 G4- | G2 G2 G4 (F4 D4) | E4 G8 F4 | E4 C4 D6 D2 | G,4 C4 C4 E4 | (E4 F4) G8 | z4 G4 G4 E4 | %7
w: Ec\- ce vi\-|* di- mus e\- *|um non ha-|ben- tem spe- ci-|em, ne- que de-|co\- * rem:|as- pe- ctus|
 F8 E4 E4 | C8 D4 B,4 | ^C8 D8 | E4 E8 E4 | F8 E8- | E4 D4 D8 | D4 D8 E4 | C4 C4 E8 | A,8 z4 C4- | %16
w: e- ius in|e- o non|est: hic|pec- ca- ta|no- stra|* por- ta-|vit, et pro|no- bis do-|let: i\-|
 C4 E4 F8 | E8 F6 F2 | F4 E4 D4 D4 | D4 E4 C4 E4 | E12 E4 | (C6 D2 E8) | E16 || E8 C4 E4 | %24
w: * pse au-|tem vul- ne-|ra- tus est pro-|pter i- ni- qui-|ta- tes|no\- * *|stras.|Cu- ius li-|
 (E4 F4) G4 G4 | F4 E4 E8 | E16 || E16 | C4 C4 D8 | E16 | C16 | C4 C4 (D8- | D4 C4) B,8 | ^C16 || %34
w: vo\- * re sa-|na- li su-|mus.|Vere~languores~nostros|i- pse tu-|lit,|et~dolores~nostros|i- pse por\-|* * ta-|vi.|
 E8 C4 E4 | (E4 F4) G4 G4 | F4 E4 E8 | E16 |] %38
w: Cu- ius li-|vo\- * re sa-|na- li su-|mus.|
V:3
 B8 c4 d4- | d2 d2 e4 (c4 A4) | B4 e8 d4 | B4 A4 A6 B2 | c4 G4 A4 B4 | c8 d8 | z4 d4 d4 c4 | %7
w: Ec\- ce vi\-|* di- mus e\- *|um non ha-|ben- tem spe- ci-|em, ne- que de-|co- rem:|as- pe- ctus|
 c8 c4 B4 | A8 A4 ^G4 | A8 A8 | c4 c8 c4 | c8 c8 | B8 A8 | G4 B8 c4 | A4 A4 (B4 ^c4) | d8 z4 G4- | %16
w: e- ius in|e- o non|est: hic|pec- ca- ta|no- stra|por- ta-|vit, et pro|no- bis do\- *|let: i\-|
 G4 c4 c8 | c8 d6 d2 | d4 c4 B4 B4 | B4 G4 A4 B4 | (c6 B2 A4) G4 | (A8 B8) | ^c16 || B8 A4 B4 | %24
w: * pse au-|tem vul- ne-|ra- tus est pro-|pter i- ni- qui-|ta\- * * tes|no\- *|stras.|Cu- ius li-|
 c8 d4 e4 | d4 B4 c8 | B16 || B16 | A4 c4 (c4 B4) | c16 | A16 | A8 A4 B4 | (^G4 A8 G4) | A16 || %34
w: vo- re sa-|na- li su-|mus.|Vere~languores~nostros|i- pse tu\- *|lit,|et~dolores~nostros|i- pse por-|ta\- * *|vi.|
 B8 A4 B4 | c8 d4 e4 | d4 B4 c8 | B16 |] %38
w: Cu- ius li-|vo- re sa-|na- li su-|mus.|
V:4
 E,8 A,4 G,4- | G,2 G,2 E,4 F,8 | E,4 C,8 D,4 | E,4 F,4 D,6 D,2 | C,4 C,4 F,4 E,4 | A,8 G,8 | %6
w: Ec\- ce vi\-|* di- mus e-|um non ha-|ben- tem spe- ci-|em, ne- que de-|co- rem:|
 z4 G,4 G,4 A,4 | F,8 C,4 E,4 | F,8 D,4 E,4 | A,,8 D,8 | C,4 C,8 C,4 | F,8 (C,6 D,2 | %12
w: as- pe- ctus|e- ius in|e- o non|est: hic|pec- ca- ta|no- stra *|
 E,4) G,4 D,8 | G,,4 G,8 E,4 | F,4 F,4 E,8 | D,8 z4 C,4- | C,4 C,4 F,8 | C,8 _B,,6 B,,2 | %18
w: * por- ta-|vit, et pro|no- bis do-|let: i\-|* pse au-|tem vul- ne-|
 _B,,4 C,4 G,,4 G,4 | G,4 E,4 F,4 E,4 | A,12 E,4 | (F,8 E,8) | A,,16 || E,8 F,4 E,4 | A,8 G,4 C,4 | %25
w: ra- tus est pro-|pter i- ni- qui-|ta- tes|no\- *|stras.|Cu- ius li-|vo- re sa-|
 D,4 E,4 A,,8 | E,16 || E,16 | F,4 A,4 G,8 | C,16 | F,16 | F,8 D,4 D,4 | E,16 | A,,16 || %34
w: na- li su-|mus.|Vere~languores~nostros|i- pse tu-|lit,|et~dolores~nostros|i- pse por-|ta-|vi.|
 E,8 F,4 E,4 | A,8 G,4 C,4 | D,4 E,4 A,,8 | E,16 |] %38
w: Cu- ius li-|vo- re sa-|na- li su-|mus.|

